svg/set/MOM/80.svg

<?xml version="1.0" encoding="UTF-8" standalone="no"?>
<!-- Generator: Adobe Illustrator 15.1.0, SVG Export Plug-In . SVG Version: 6.00 Build 0)  -->

<svg
   version="1.1"
   id="Layer_1"
   x="0px"
   y="0px"
   width="149.998"
   height="110.09219"
   viewBox="0 0 149.998 110.09219"
   enable-background="new 0 0 156 116"
   xml:space="preserve"
   xmlns="http://www.w3.org/2000/svg"
   xmlns:svg="http://www.w3.org/2000/svg"><defs
   id="defs2" />
<g
   id="g2"
   transform="translate(-3.02,-2.954)">
	<path
   fill="#5e5f62"
   d="M 62.328,25.908 76.998,3.136 c 5.831,0.209 11.666,1.344 17.276,3.45 l -7.427,19.02 C 78.82,22.665 70.082,22.866 62.328,25.908 Z M 43.521,85.333 47.72,79.336 C 42.758,72.978 40.241,65.128 40.426,57.236 L 24.047,78.761 c 2.459,6.071 6.021,11.746 10.627,16.701 l 3.01,-12.737 z m 11.634,1.056 C 53.37,85.139 51.747,83.744 50.274,82.243 L 44.82,90.033 40.298,88.01 37.835,98.6 c 1.75,1.601 3.622,3.106 5.617,4.503 4.632,3.243 9.589,5.672 14.703,7.317 l -0.33,-22.344 c -0.906,-0.519 -1.798,-1.077 -2.67,-1.687 z M 98.247,8.261 90.754,27.322 c 1.386,0.713 2.742,1.519 4.054,2.437 4.646,3.253 8.236,7.444 10.716,12.136 l 8.874,-0.532 8.584,-10.102 c -3.917,-7.023 -9.44,-13.294 -16.47,-18.216 -2.658,-1.862 -5.424,-3.453 -8.265,-4.784 z m -36.073,81.916 0.308,21.439 c 16.467,3.839 34.03,-0.13 47.271,-10.951 L 91.947,88.197 c -8.995,5.058 -19.973,5.899 -29.773,1.98 z m 45.027,-44.624 c 2.18,5.624 2.863,11.76 1.947,17.764 l 17.869,12.512 c 4.623,-13.525 3.709,-28.226 -2.181,-40.928 l -8.61,10.111 z m -54.238,31.788 0.559,-18.015 14.229,9.963 7.565,3.004 47.647,33.363 30.055,7.061 L 136.105,86.89 88.458,53.526 83.049,47.444 68.819,37.48 85.556,30.793 57.112,27.337 72.674,3.156 c -4.681,0.2 -9.321,0.993 -13.801,2.362 L 45.771,26.308 40.1,24.876 39.795,24.798 18.326,9.766 16.017,2.954 3.298,7.88 3.02,21.518 l 7.19,-0.16 21.468,15.032 0.177,0.261 3.286,4.839 -15.048,19.49 c 0.25,4.655 1.09,9.262 2.496,13.707 L 39.988,51.794 Z"
   id="path1" />
	<path
   fill="#010101"
   d="m 89.996,8.667 -4.993,12.725 c -5.033,-1.37 -10.245,-1.673 -15.309,-0.959 2.819,-4.381 6.068,-9.43 8.921,-13.862 3.827,0.264 7.645,0.961 11.381,2.096 z m -47.588,72.64 1.213,-1.733 c -2.834,-4.145 -4.796,-8.771 -5.819,-13.594 -3.152,4.146 -6.785,8.928 -9.974,13.124 1.419,3.192 3.172,6.256 5.243,9.137 l 2.374,-10.046 z m 10.777,7.935 c -0.877,-0.614 -1.713,-1.265 -2.522,-1.938 l -4.729,6.754 -3.396,-1.519 -1.126,4.764 c 1.262,1.078 2.583,2.109 3.971,3.081 3.03,2.122 6.209,3.869 9.482,5.259 L 54.643,90.208 c -0.492,-0.311 -0.978,-0.63 -1.458,-0.966 z M 99.893,12.843 94.863,25.66 c 0.658,0.403 1.311,0.821 1.951,1.271 4.537,3.177 8.159,7.17 10.826,11.636 l 5.189,-0.333 6.15,-7.223 c -3.587,-5.833 -8.396,-11.046 -14.363,-15.223 -1.537,-1.078 -3.115,-2.058 -4.723,-2.945 z m -34.443,82.065 0.202,13.973 c 13.349,2.448 27.263,-0.471 38.53,-8.184 L 91.955,92.135 c -8.154,4.051 -17.594,5.082 -26.505,2.773 z m 58.321,-53.786 -5.977,7.018 -5.992,0.383 c 1.132,4.366 1.479,8.919 1.023,13.436 l 12.291,8.606 c 2.438,-9.801 1.913,-20.049 -1.345,-29.443 z m -65.981,0.862 7.542,-3.013 15.56,10.895 5.409,6.083 47.449,33.224 12.156,18.563 -21.602,-5.075 -47.448,-33.223 -7.565,-3.003 -15.56,-10.896 0.251,-8.117 4.831,0.974 c -1.04,2.554 -0.225,5.574 2.128,7.222 2.732,1.914 6.499,1.25 8.413,-1.483 1.913,-2.733 1.249,-6.5 -1.483,-8.413 -2.354,-1.647 -5.47,-1.38 -7.514,0.47 z m 20.564,11.078 c -2.732,-1.914 -6.5,-1.25 -8.413,1.483 -1.914,2.732 -1.25,6.499 1.484,8.412 2.732,1.914 6.499,1.25 8.413,-1.483 1.914,-2.733 1.249,-6.499 -1.484,-8.412 z M 52.866,33.917 56.04,39.116 72.668,32.473 55.163,30.345 Z m -8.126,11.641 -2.581,3.396 7.975,15.701 0.555,-17.897 z M 54.968,44.061 48.907,34.133 66.236,7.206 C 64.43,7.518 62.639,7.919 60.874,8.419 l -13.626,21.585 -5.304,-1.34 -2.125,4.788 -3.773,3.635 3.074,4.525 -15.623,20.187 c 0.133,1.83 0.368,3.65 0.694,5.454 L 43.567,41.761 Z M 15.186,10.537 14.046,7.173 6.476,10.105 6.31,18.222 9.861,18.143 Z m 50.837,37.822 c 1.275,0.894 1.585,2.651 0.692,3.926 -0.893,1.276 -2.651,1.586 -3.926,0.693 -1.275,-0.894 -1.585,-2.651 -0.692,-3.927 0.893,-1.276 2.651,-1.584 3.926,-0.692 z M 13.062,19.421 34.01,34.089 l 0.2,0.294 2.921,-2.813 1.645,-3.706 -0.344,-0.088 -20.95,-14.669 z m 59.519,36.972 c -0.893,1.275 -0.583,3.033 0.692,3.926 1.275,0.893 3.033,0.583 3.926,-0.692 0.893,-1.275 0.583,-3.033 -0.692,-3.926 -1.275,-0.893 -3.033,-0.584 -3.926,0.692 z"
   id="path2" />
</g>
</svg>

<?xml version="1.0" encoding="utf-8"?>
<!-- Generator: Adobe Illustrator 15.1.0, SVG Export Plug-In . SVG Version: 6.00 Build 0)  -->
<!DOCTYPE svg PUBLIC "-//W3C//DTD SVG 1.1//EN" "http://www.w3.org/Graphics/SVG/1.1/DTD/svg11.dtd">
<svg version="1.1"
	 id="Layer_1" xmlns:rdf="http://www.w3.org/1999/02/22-rdf-syntax-ns#" xmlns:cc="http://creativecommons.org/ns#" xmlns:dc="http://purl.org/dc/elements/1.1/" xmlns:svg="http://www.w3.org/2000/svg"
	 xmlns="http://www.w3.org/2000/svg" xmlns:xlink="http://www.w3.org/1999/xlink" x="0px" y="0px" width="156px" height="116px"
	 viewBox="0 0 156 116" enable-background="new 0 0 156 116" xml:space="preserve">
<g>
	<path fill="#5E5F62" d="M62.328,25.908l14.67-22.772c5.831,0.209,11.666,1.344,17.276,3.45l-7.427,19.02
		C78.82,22.665,70.082,22.866,62.328,25.908z M43.521,85.333l4.199-5.997c-4.962-6.358-7.479-14.208-7.294-22.1L24.047,78.761
		c2.459,6.071,6.021,11.746,10.627,16.701l3.01-12.737L43.521,85.333z M55.155,86.389c-1.785-1.25-3.408-2.645-4.881-4.146
		l-5.454,7.79l-4.522-2.023L37.835,98.6c1.75,1.601,3.622,3.106,5.617,4.503c4.632,3.243,9.589,5.672,14.703,7.317l-0.33-22.344
		C56.919,87.557,56.027,86.999,55.155,86.389z M98.247,8.261l-7.493,19.061c1.386,0.713,2.742,1.519,4.054,2.437
		c4.646,3.253,8.236,7.444,10.716,12.136l8.874-0.532l8.584-10.102c-3.917-7.023-9.44-13.294-16.47-18.216
		C103.854,11.183,101.088,9.592,98.247,8.261z M62.174,90.177l0.308,21.439c16.467,3.839,34.03-0.13,47.271-10.951L91.947,88.197
		C82.952,93.255,71.974,94.096,62.174,90.177z M107.201,45.553c2.18,5.624,2.863,11.76,1.947,17.764l17.869,12.512
		c4.623-13.525,3.709-28.226-2.181-40.928l-8.61,10.111L107.201,45.553z M52.963,77.341l0.559-18.015l14.229,9.963l7.565,3.004
		l47.647,33.363l30.055,7.061L136.105,86.89L88.458,53.526l-5.409-6.082l-14.23-9.964l16.737-6.687l-28.444-3.456L72.674,3.156
		c-4.681,0.2-9.321,0.993-13.801,2.362L45.771,26.308L40.1,24.876l-0.305-0.078L18.326,9.766l-2.309-6.812L3.298,7.88L3.02,21.518
		l7.19-0.16L31.678,36.39l0.177,0.261l3.286,4.839l-15.048,19.49c0.25,4.655,1.09,9.262,2.496,13.707l17.399-22.893L52.963,77.341z"
		/>
	<path fill="#010101" d="M89.996,8.667l-4.993,12.725c-5.033-1.37-10.245-1.673-15.309-0.959c2.819-4.381,6.068-9.43,8.921-13.862
		C82.442,6.835,86.26,7.532,89.996,8.667z M42.408,81.307l1.213-1.733c-2.834-4.145-4.796-8.771-5.819-13.594
		c-3.152,4.146-6.785,8.928-9.974,13.124c1.419,3.192,3.172,6.256,5.243,9.137l2.374-10.046L42.408,81.307z M53.185,89.242
		c-0.877-0.614-1.713-1.265-2.522-1.938l-4.729,6.754l-3.396-1.519l-1.126,4.764c1.262,1.078,2.583,2.109,3.971,3.081
		c3.03,2.122,6.209,3.869,9.482,5.259l-0.222-15.435C54.151,89.897,53.665,89.578,53.185,89.242z M99.893,12.843L94.863,25.66
		c0.658,0.403,1.311,0.821,1.951,1.271c4.537,3.177,8.159,7.17,10.826,11.636l5.189-0.333l6.15-7.223
		c-3.587-5.833-8.396-11.046-14.363-15.223C103.079,14.71,101.501,13.73,99.893,12.843z M65.45,94.908l0.202,13.973
		c13.349,2.448,27.263-0.471,38.53-8.184l-12.227-8.562C83.801,96.186,74.361,97.217,65.45,94.908z M123.771,41.122l-5.977,7.018
		l-5.992,0.383c1.132,4.366,1.479,8.919,1.023,13.436l12.291,8.606C127.554,60.764,127.029,50.516,123.771,41.122z M57.79,41.984
		l7.542-3.013l15.56,10.895l5.409,6.083l47.449,33.224l12.156,18.563l-21.602-5.075L76.856,69.438l-7.565-3.003l-15.56-10.896
		l0.251-8.117l4.831,0.974c-1.04,2.554-0.225,5.574,2.128,7.222c2.732,1.914,6.499,1.25,8.413-1.483
		c1.913-2.733,1.249-6.5-1.483-8.413c-2.354-1.647-5.47-1.38-7.514,0.47L57.79,41.984z M78.354,53.062
		c-2.732-1.914-6.5-1.25-8.413,1.483c-1.914,2.732-1.25,6.499,1.484,8.412c2.732,1.914,6.499,1.25,8.413-1.483
		C81.752,58.741,81.087,54.975,78.354,53.062z M52.866,33.917l3.174,5.199l16.628-6.643l-17.505-2.128L52.866,33.917z M44.74,45.558
		l-2.581,3.396l7.975,15.701l0.555-17.897L44.74,45.558z M54.968,44.061l-6.061-9.928L66.236,7.206
		c-1.806,0.312-3.597,0.713-5.362,1.213L47.248,30.004l-5.304-1.34l-2.125,4.788l-3.773,3.635l3.074,4.525L23.497,61.799
		c0.133,1.83,0.368,3.65,0.694,5.454l19.376-25.492L54.968,44.061z M15.186,10.537l-1.14-3.364l-7.57,2.932l-0.166,8.117
		l3.551-0.079L15.186,10.537z M66.023,48.359c1.275,0.894,1.585,2.651,0.692,3.926c-0.893,1.276-2.651,1.586-3.926,0.693
		c-1.275-0.894-1.585-2.651-0.692-3.927S64.748,47.467,66.023,48.359z M13.062,19.421l20.948,14.668l0.2,0.294l2.921-2.813
		l1.645-3.706l-0.344-0.088L17.482,13.107L13.062,19.421z M72.581,56.393c-0.893,1.275-0.583,3.033,0.692,3.926
		s3.033,0.583,3.926-0.692s0.583-3.033-0.692-3.926S73.474,55.117,72.581,56.393z"/>
</g>
</svg>
